wifi-alert.svg

<svg fill="currentColor" viewBox="0 0 24 24"><path d="M20.24 5H18v2.25A15 15 0 0 0 12 6C8.62 6 5.5 7.12 3 9L1.2 6.6C4.21 4.34 7.95 3 12 3c2.97 0 5.77.73 8.24 2M8.4 16.2 12 21l3.6-4.8c-1-.75-2.25-1.2-3.6-1.2s-2.6.45-3.6 1.2m-3.6-4.8 1.8 2.4C8.1 12.67 9.97 12 12 12s3.9.67 5.4 1.8l.6-.8v-2.38A11.87 11.87 0 0 0 12 9c-2.7 0-5.19.89-7.2 2.4M20 17h2v-2h-2zm0-10v6h2V7z"/></svg>

<svg  viewBox="0 0 24 24" fill="currentColor"><path  d="M20.24 5H18V7.25C16.16 6.45 14.13 6 12 6C8.62 6 5.5 7.12 3 9L1.2 6.6C4.21 4.34 7.95 3 12 3C14.97 3 17.77 3.73 20.24 5M8.4 16.2L12 21L15.6 16.2C14.6 15.45 13.35 15 12 15S9.4 15.45 8.4 16.2M4.8 11.4L6.6 13.8C8.1 12.67 9.97 12 12 12S15.9 12.67 17.4 13.8L18 13V10.62C16.23 9.59 14.19 9 12 9C9.3 9 6.81 9.89 4.8 11.4M20 17H22V15H20V17M20 7V13H22V7H20Z"/></svg>
